ic16/ic16__typography.svg

<svg fill="none" height="16" width="16" xmlns="http://www.w3.org/2000/svg" xmlns:xlink="http://www.w3.org/1999/xlink"><clipPath id="a"><path d="m0 0h16v16h-16z"/></clipPath><g clip-path="url(#a)"><path clip-rule="evenodd" d="m6.21 8.5-1.636-4.906-1.717 4.906zm.5 1.5.829 2.487a.75.75 0 0 0 1.423-.474l-3.227-9.681a1.216 1.216 0 0 0 -2.302-.018l-3.39 9.688a.75.75 0 0 0 1.415.496l.874-2.498zm3.13-4.358c.69-1.268 2.03-1.642 3.16-1.642 1.5 0 3 .939 3 2.601v5.649a.75.75 0 0 1 -1.448.275c-.557.295-1.252.475-2.052.475-.77 0-1.514-.231-2.078-.709-.577-.488-.922-1.199-.922-2.041 0-.694.265-1.411.887-1.944.613-.526 1.493-.806 2.613-.806h1.5v-.899c0-.54-.5-1.101-1.5-1.101-.869 0-1.528.282-1.84.858a.75.75 0 1 1 -1.32-.716zm4.66 3.358h-1.5c-.881 0-1.375.22-1.637.444-.253.217-.363.5-.363.806 0 .408.155.697.39.896.249.21.63.354 1.11.354.732 0 1.26-.209 1.588-.449.35-.257.412-.495.412-.551z" fill-rule="evenodd"/></g></svg>

<svg width="16" height="16" fill="none" xmlns="http://www.w3.org/2000/svg">
  <g clip-path="url(#ic16__typography__clip0)">
    <path fill-rule="evenodd" clip-rule="evenodd" d="M6.21 8.5L4.574 3.594 2.857 8.5H6.21zm.5 1.5l.829 2.487a.75.75 0 001.423-.474L5.735 2.332a1.216 1.216 0 00-2.302-.018l-3.39 9.688a.75.75 0 001.415.496L2.332 10H6.71zm3.13-4.358C10.53 4.374 11.87 4 13 4c1.5 0 3 .939 3 2.601v5.649a.75.75 0 01-1.448.275C13.995 12.82 13.3 13 12.5 13c-.77 0-1.514-.231-2.078-.709-.577-.488-.922-1.199-.922-2.041 0-.694.265-1.411.887-1.944C11 7.78 11.88 7.5 13 7.5h1.5v-.899c0-.54-.5-1.101-1.5-1.101-.869 0-1.528.282-1.84.858a.75.75 0 11-1.32-.716zM14.5 9H13c-.881 0-1.375.22-1.637.444-.253.217-.363.5-.363.806 0 .408.155.697.39.896.249.21.63.354 1.11.354.732 0 1.26-.209 1.588-.449.35-.257.412-.495.412-.551V9z" />
  </g>
  <defs>
    <clipPath id="ic16__typography__clip0">
      <path  d="M0 0h16v16H0z"/>
    </clipPath>
  </defs>
</svg>
